X: 1
T: Polska efter svärmor
S: efter Carl Emil Palmberg
R: Polska
O: Orsa, Dalarna
Z: Håkan Lidén, 2009-02-05
N: finns på SMUS
M: 3/4
L: 1/8
K: Am
A2 a2 {b}a2 | a>g e^f g2 | g>a b>a g>^f | ^d>^f e^c A2- | A2 a2 {b}a2 | 
a>g e^f g2 | g>a b>a g>^f | ^d2 e4 :: =c>=d e>d cB/c/ | BA/^G/ Ac e>d | 
c>d e>d cB/c/ | BA/^G/ Ac e2 | c>d e>d c>B | =G2 A4 :|]

